assets/images/home_use_linphone.svg

<?xml version="1.0" encoding="UTF-8"?>
<svg width="147px" height="149px" viewBox="0 0 147 149" version="1.1" xmlns="http://www.w3.org/2000/svg" xmlns:xlink="http://www.w3.org/1999/xlink">
    <!-- Generator: Sketch 42 (36781) - http://www.bohemiancoding.com/sketch -->
    <title>home_use_linphone</title>
    <desc>Created with Sketch.</desc>
    <defs>
        <path d="M0,26.775 C0,41.563 11.988,53.55 26.776,53.55 C41.564,53.55 53.55,41.563 53.55,26.775 C53.55,11.987 41.564,0 26.776,0 C11.988,0 0,11.987 0,26.775 Z" id="path-1"></path>
    </defs>
    <g id="Symbols" stroke="none" stroke-width="1" fill="none" fill-rule="evenodd">
        <g id="home_use_linphone">
            <g id="Page-1">
                <g id="Group-6" transform="translate(0.000000, 0.633000)">
                    <g id="Group-3" fill="#4C5964">
                        <path d="M146.939,73.8364 C146.939,114.4124 114.045,147.3064 73.47,147.3064 C32.894,147.3064 0,114.4124 0,73.8364 C0,33.2604 32.894,0.3664 73.47,0.3664 C114.045,0.3664 146.939,33.2604 146.939,73.8364" id="Fill-1"></path>
                    </g>
                    <path d="M66.0894,44.0962 C64.2094,42.6172 63.2694,40.2382 63.2694,36.9562 C63.2694,33.6772 64.2094,31.2972 66.0894,29.8172 C67.9684,28.3372 70.5484,27.5962 73.8294,27.5962 C77.1094,27.5962 79.6894,28.3372 81.5694,29.8172 C83.4484,31.2972 84.3894,33.6772 84.3894,36.9562 C84.3894,40.2382 83.4484,42.6172 81.5694,44.0962 C79.6894,45.5772 77.1094,46.3172 73.8294,46.3172 C70.5484,46.3172 67.9684,45.5772 66.0894,44.0962 L66.0894,44.0962 Z M56.1894,109.1972 L60.9894,106.5572 C62.2684,105.9172 63.0684,105.0572 63.3894,103.9772 C63.7084,102.8972 63.8694,100.7962 63.8694,97.6762 L63.8694,67.9162 C63.8694,65.8372 63.7084,64.4172 63.3894,63.6572 C63.0684,62.8972 62.2294,62.1572 60.8694,61.4372 L56.1894,59.1572 L56.1894,56.2772 L81.8694,53.0362 L83.0694,54.2372 L83.0694,97.6762 C83.0694,100.7962 83.2294,102.8972 83.5494,103.9772 C83.8684,105.0572 84.6694,105.9172 85.9494,106.5572 L90.7494,109.1972 L90.7494,112.0762 L56.1894,112.0762 L56.1894,109.1972 Z" id="Fill-4" fill="#FEFEFE"></path>
                </g>
                <g id="Group-9" transform="translate(89.000000, 94.633000)">
                    <mask id="mask-2" fill="white">
                        <use xlink:href="#path-1"></use>
                    </mask>
                    <use id="Clip-8" class="color-i-fill" fill="#FE5E00" xlink:href="#path-1"></use>
                </g>
                <path d="M129.059,126.971 C129.059,128.736 127.628,130.167 125.864,130.167 L120.731,130.167 L117.682,137.137 L113.327,130.167 L105.197,130.167 C103.431,130.167 102,128.736 102,126.971 L102,114.196 C102,112.43 103.431,111 105.197,111 L125.864,111 C127.628,111 129.059,112.43 129.059,114.196 L129.059,126.971 Z" id="Stroke-10" stroke="#FEFEFE" stroke-width="2" stroke-linecap="round" stroke-linejoin="round"></path>
            </g>
        </g>
    </g>
</svg>

<?xml version="1.0" encoding="UTF-8" standalone="no"?>
<svg
   xmlns:dc="http://purl.org/dc/elements/1.1/"
   xmlns:cc="http://creativecommons.org/ns#"
   xmlns:rdf="http://www.w3.org/1999/02/22-rdf-syntax-ns#"
   xmlns:svg="http://www.w3.org/2000/svg"
   xmlns="http://www.w3.org/2000/svg"
   xmlns:xlink="http://www.w3.org/1999/xlink"
   xmlns:sodipodi="http://sodipodi.sourceforge.net/DTD/sodipodi-0.dtd"
   xmlns:inkscape="http://www.inkscape.org/namespaces/inkscape"
   width="149"
   height="149"
   viewBox="0 0 149 149"
   version="1.1"
   id="svg22"
   sodipodi:docname="home_use_linphone.svg"
   inkscape:version="0.92.2 2405546, 2018-03-11">
  <metadata
     id="metadata26">
    <rdf:RDF>
      <cc:Work
         rdf:about="">
        <dc:format>image/svg+xml</dc:format>
        <dc:type
           rdf:resource="http://purl.org/dc/dcmitype/StillImage" />
        <dc:title>home_use_linphone</dc:title>
      </cc:Work>
    </rdf:RDF>
  </metadata>
  <sodipodi:namedview
     pagecolor="#ffffff"
     bordercolor="#666666"
     borderopacity="1"
     objecttolerance="10"
     gridtolerance="10"
     guidetolerance="10"
     inkscape:pageopacity="0"
     inkscape:pageshadow="2"
     inkscape:window-width="868"
     inkscape:window-height="480"
     id="namedview24"
     showgrid="false"
     inkscape:zoom="1.5838926"
     inkscape:cx="73.5"
     inkscape:cy="74.5"
     inkscape:window-x="0"
     inkscape:window-y="35"
     inkscape:window-maximized="0"
     inkscape:current-layer="svg22" />
  <!-- Generator: Sketch 42 (36781) - http://www.bohemiancoding.com/sketch -->
  <title
     id="title2">home_use_linphone</title>
  <desc
     id="desc4">Created with Sketch.</desc>
  <defs
     id="defs7">
    <path
       d="M 0,26.775 C 0,41.563 11.988,53.55 26.776,53.55 41.564,53.55 53.55,41.563 53.55,26.775 53.55,11.987 41.564,0 26.776,0 11.988,0 0,11.987 0,26.775 Z"
       id="path-1"
       inkscape:connector-curvature="0" />
  </defs>
  <g
     id="Symbols"
     style="fill:none;fill-rule:evenodd;stroke:none;stroke-width:1"
     transform="translate(1)">
    <g
       id="home_use_linphone">
      <g
         id="Page-1">
        <g
           id="Group-6"
           transform="translate(0,0.633)">
          <g
             id="Group-3"
             style="fill:#4c5964">
            <path
               d="m 146.939,73.8364 c 0,40.576 -32.894,73.47 -73.469,73.47 -40.576,0 -73.47,-32.894 -73.47,-73.47 0,-40.576 32.894,-73.47 73.47,-73.47 40.575,0 73.469,32.894 73.469,73.47"
               id="Fill-1"
               inkscape:connector-curvature="0" />
          </g>
          <path
             d="m 66.0894,44.0962 c -1.88,-1.479 -2.82,-3.858 -2.82,-7.14 0,-3.279 0.94,-5.659 2.82,-7.139 1.879,-1.48 4.459,-2.221 7.74,-2.221 3.28,0 5.86,0.741 7.74,2.221 1.879,1.48 2.82,3.86 2.82,7.139 0,3.282 -0.941,5.661 -2.82,7.14 -1.88,1.481 -4.46,2.221 -7.74,2.221 -3.281,0 -5.861,-0.74 -7.74,-2.221 z m -9.9,65.101 4.8,-2.64 c 1.279,-0.64 2.079,-1.5 2.4,-2.58 0.319,-1.08 0.48,-3.181 0.48,-6.301 v -29.76 c 0,-2.079 -0.161,-3.499 -0.48,-4.259 -0.321,-0.76 -1.16,-1.5 -2.52,-2.22 l -4.68,-2.28 v -2.88 l 25.68,-3.241 1.2,1.201 v 43.439 c 0,3.12 0.16,5.221 0.48,6.301 0.319,1.08 1.12,1.94 2.4,2.58 l 4.8,2.64 v 2.879 h -34.56 z"
             id="Fill-4"
             inkscape:connector-curvature="0"
             style="fill:#fefefe" />
        </g>
        <g
           id="Group-9"
           transform="translate(89,94.633)">
          <mask
             id="mask-2"
             fill="white">
            <use
               xlink:href="#path-1"
               id="use13"
               x="0"
               y="0"
               width="100%"
               height="100%" />
          </mask>
          <use
             id="Clip-8"
             class="color-i-fill"
             xlink:href="#path-1"
             style="fill:#fe5e00"
             x="0"
             y="0"
             width="100%"
             height="100%" />
        </g>
        <path
           d="m 129.059,126.971 c 0,1.765 -1.431,3.196 -3.195,3.196 h -5.133 l -3.049,6.97 -4.355,-6.97 h -8.13 c -1.766,0 -3.197,-1.431 -3.197,-3.196 v -12.775 c 0,-1.766 1.431,-3.196 3.197,-3.196 h 20.667 c 1.764,0 3.195,1.43 3.195,3.196 z"
           id="Stroke-10"
           inkscape:connector-curvature="0"
           style="stroke:#fefefe;stroke-width:2;stroke-linecap:round;stroke-linejoin:round" />
      </g>
    </g>
  </g>
</svg>
